X:49
T: Comet (The)
R: hp 32
M: 4/4
L: 1/8
S: Luke O'Malley vol 1
Z: B.Black
R: hornpipe
K:F
(3AB=B|cFAc dFBd|(3cdc Ac fef^f|gceg bcag|\
(3fgf ef c2 (3AB=B|
cFAc dFBd|(3cdc Ac fef^f|gebg ecBG|1\
(3FAc (3fac' f'2 :|2 F2 A2 F2||
(3ef^f|gceg beag|fAcf a2 g^f|gc'=ba (3gag (3fed|
(3ceg (3c'ge c2 (3A,B,=B,|(3C=B,C A,C FAc^c|
(3d^cd DF Bdfb|ac'fa gbeg|f2 a2 f2 :|

